Flat-Remix-Blue-Dark/apps/scalable/poedit.svg

<svg xmlns="http://www.w3.org/2000/svg" xmlns:xlink="http://www.w3.org/1999/xlink" width="512" height="512" version="1.1" viewBox="0 0 384 384"> <defs> <filter id="alpha" width="100%" height="100%" x="0%" y="0%" filterUnits="objectBoundingBox"> <feColorMatrix in="SourceGraphic" type="matrix" values="0 0 0 0 1 0 0 0 0 1 0 0 0 0 1 0 0 0 1 0"/> </filter> <mask id="mask0"> <g filter="url(#alpha)"> <rect width="384" height="384" x="0" y="0" style="fill:rgb(0%,0%,0%);fill-opacity:0.2"/> </g> </mask> <clipPath id="clip1"> <rect width="384" height="384" x="0" y="0"/> </clipPath> <g id="surface5" clip-path="url(#clip1)"> <path style="fill:rgb(0%,0%,0%)" d="M 360 349.199219 L 360 46.800781 C 360 37.523438 352.476562 30 343.199219 30 L 40.800781 30 C 31.523438 30 24 37.523438 24 46.800781 L 24 349.199219 C 24 358.476562 31.523438 366 40.800781 366 L 343.199219 366 C 352.476562 366 360 358.476562 360 349.199219 Z M 360 349.199219"/> </g> <mask id="mask1"> <g filter="url(#alpha)"> <rect width="384" height="384" x="0" y="0" style="fill:rgb(0%,0%,0%);fill-opacity:0.2"/> </g> </mask> <clipPath id="clip2"> <rect width="384" height="384" x="0" y="0"/> </clipPath> <g id="surface8" clip-path="url(#clip2)"> <path style="fill:rgb(0%,0%,0%)" d="M 324 313.996094 L 324 82.003906 C 324 73.164062 316.613281 66 307.5 66 L 76.5 66 C 67.386719 66 60 73.164062 60 82.003906 L 60 313.996094 C 60 322.835938 67.386719 330 76.5 330 L 307.5 330 C 316.613281 330 324 322.835938 324 313.996094 Z M 324 313.996094"/> </g> <mask id="mask2"> <g filter="url(#alpha)"> <rect width="384" height="384" x="0" y="0" style="fill:rgb(0%,0%,0%);fill-opacity:0.2"/> </g> </mask> <clipPath id="clip3"> <rect width="384" height="384" x="0" y="0"/> </clipPath> <g id="surface11" clip-path="url(#clip3)"> <path style="fill:rgb(100.000%,100.000%,100.000%)" d="M 40.804688 24 C 31.496094 24 24 31.496094 24 40.804688 L 24 46.804688 C 24 37.496094 31.496094 30 40.804688 30 L 343.195312 30 C 352.503906 30 360 37.496094 360 46.804688 L 360 40.804688 C 360 31.496094 352.503906 24 343.195312 24 Z M 40.804688 24"/> </g> </defs> <g> <use mask="url(#mask0)" xlink:href="#surface5"/> <path style="fill:rgb(63.137%,41.960%,23.921%)" d="M 360 343.199219 L 360 40.800781 C 360 31.523438 352.476562 24 343.199219 24 L 40.800781 24 C 31.523438 24 24 31.523438 24 40.800781 L 24 343.199219 C 24 352.476562 31.523438 360 40.800781 360 L 343.199219 360 C 352.476562 360 360 352.476562 360 343.199219 Z M 360 343.199219"/> <use mask="url(#mask1)" xlink:href="#surface8"/> <path style="fill:rgb(100.000%,100.000%,100.000%)" d="M 324 307.996094 L 324 76.003906 C 324 67.164062 316.613281 60 307.5 60 L 76.5 60 C 67.386719 60 60 67.164062 60 76.003906 L 60 307.996094 C 60 316.835938 67.386719 324 76.5 324 L 307.5 324 C 316.613281 324 324 316.835938 324 307.996094 Z M 324 307.996094"/> <path style="fill:rgb(37.647%,38.823%,43.137%)" d="M 144.351562 71.992188 C 131.679688 79.773438 98.980469 89.738281 78 95.828125 L 78.65625 97.679688 C 88.636719 96.683594 102.890625 95.269531 112.898438 93.578125 L 112.898438 108.296875 L 78.140625 108.296875 L 78.984375 120.71875 L 108.070312 120.71875 C 103.074219 141.261719 91.511719 149.90625 78.351562 165.769531 L 80.34375 167.621094 C 92.683594 158.679688 105.054688 150.734375 112.875 138.957031 L 112.875 180 L 116.0625 180 C 124.554688 180 132.457031 176.722656 132.609375 175.710938 L 132.609375 133.894531 C 138.941406 139.597656 140.152344 146.269531 141.328125 153.371094 C 143.484375 155.183594 145.824219 156.042969 147.984375 156.042969 C 152.472656 156.042969 156.304688 152.792969 156.304688 148.261719 C 156.304688 142.128906 154.09375 136.460938 132.609375 131.644531 L 132.609375 120.71875 L 160.734375 120.71875 C 165.238281 120.71875 173.402344 110.40625 174.5625 108.578125 L 144.351562 95.992188 L 138.960938 108.273438 L 132.609375 108.273438 L 132.609375 90.179688 C 140.117188 88.472656 147.121094 86.777344 152.789062 85.070312 C 156.078125 85.152344 174.351562 83.992188 174.351562 83.992188 Z M 144.351562 71.992188"/> <path style="fill:rgb(37.647%,38.823%,43.137%)" d="M 180 84.367188 L 180 180 C 195.65625 180 197.453125 174.25 197.675781 174.046875 L 197.675781 168.46875 L 227.929688 168.46875 L 227.929688 177.304688 C 241.117188 177.304688 245.765625 173.476562 245.765625 173.203125 L 245.765625 97.960938 C 249.261719 97.265625 251.941406 96.140625 252.9375 94.84375 L 239.671875 84.460938 L 226.289062 95.992188 L 198.519531 95.992188 Z M 197.675781 108.414062 L 227.929688 108.414062 L 227.929688 156.46875 L 197.675781 156.46875 Z M 197.675781 108.414062"/> <use mask="url(#mask2)" xlink:href="#surface11"/> <path style="fill:rgb(37.647%,38.823%,43.137%)" d="M 180 216 L 180 306 L 198 306 L 198 270 L 216.914062 270 C 221.191406 290.949219 239.617188 305.996094 261 306 C 285.851562 306 306 285.851562 306 261 C 306 236.148438 285.851562 216 261 216 C 239.636719 216.023438 221.234375 231.066406 216.960938 252 L 198 252 L 198 216 Z M 261 234 C 275.910156 234 288 246.089844 288 261 C 288 275.910156 275.910156 288 261 288 C 246.089844 288 234 275.910156 234 261 C 234 246.089844 246.089844 234 261 234 Z M 261 234"/> </g> </svg>

<svg width="512" height="512" version="1.1" viewBox="0 0 384 384" xmlns="http://www.w3.org/2000/svg" xmlns:xlink="http://www.w3.org/1999/xlink"><defs><clipPath><rect width="384" height="384"/></clipPath><clipPath><rect width="384" height="384"/></clipPath><clipPath><rect width="384" height="384"/></clipPath><clipPath><rect width="384" height="384"/></clipPath><clipPath><rect width="384" height="384"/></clipPath><clipPath><rect width="384" height="384"/></clipPath><clipPath><rect width="384" height="384"/></clipPath><clipPath><rect width="384" height="384"/></clipPath><clipPath><rect width="384" height="384"/></clipPath><clipPath><rect width="384" height="384"/></clipPath><clipPath><rect width="384" height="384"/></clipPath><clipPath><rect width="384" height="384"/></clipPath><clipPath><rect width="384" height="384"/></clipPath><clipPath><rect width="384" height="384"/></clipPath><clipPath><rect width="384" height="384"/></clipPath><clipPath><rect width="384" height="384"/></clipPath><clipPath><rect width="384" height="384"/></clipPath><clipPath><rect width="384" height="384"/></clipPath><clipPath><rect width="384" height="384"/></clipPath><clipPath><rect width="384" height="384"/></clipPath><clipPath><rect width="384" height="384"/></clipPath><clipPath><rect width="384" height="384"/></clipPath><clipPath><rect width="384" height="384"/></clipPath><clipPath><rect width="384" height="384"/></clipPath><clipPath><rect width="384" height="384"/></clipPath><clipPath><rect width="384" height="384"/></clipPath><clipPath><rect width="384" height="384"/></clipPath><clipPath><rect width="384" height="384"/></clipPath><clipPath><rect width="384" height="384"/></clipPath><clipPath><rect width="384" height="384"/></clipPath><clipPath><rect width="384" height="384"/></clipPath><clipPath><rect width="384" height="384"/></clipPath><clipPath><rect width="384" height="384"/></clipPath><clipPath><rect width="384" height="384"/></clipPath><clipPath><rect width="384" height="384"/></clipPath><clipPath><rect width="384" height="384"/></clipPath><clipPath><rect width="384" height="384"/></clipPath><clipPath><rect width="384" height="384"/></clipPath><clipPath><rect width="384" height="384"/></clipPath><clipPath><rect width="384" height="384"/></clipPath><clipPath><rect width="384" height="384"/></clipPath><clipPath><rect width="384" height="384"/></clipPath><clipPath><rect width="384" height="384"/></clipPath><clipPath><rect width="384" height="384"/></clipPath><clipPath><rect width="384" height="384"/></clipPath><clipPath><rect width="384" height="384"/></clipPath><clipPath><rect width="384" height="384"/></clipPath><clipPath><rect width="384" height="384"/></clipPath><clipPath><rect width="384" height="384"/></clipPath><clipPath><rect width="384" height="384"/></clipPath><clipPath><rect width="384" height="384"/></clipPath><clipPath><rect width="384" height="384"/></clipPath><clipPath><rect width="384" height="384"/></clipPath><clipPath id="c"><path d="m111 119h177v23h-177z"/></clipPath><clipPath><path d="m368.64 199.88c0-93.234-75.602-168.75-168.75-168.75-93.152 0-168.75 75.516-168.75 168.75s75.598 168.75 168.75 168.75c93.148 0 168.75-75.516 168.75-168.75z"/></clipPath><clipPath id="b"><path d="m177 130h45v89h-45z"/></clipPath><clipPath><path d="m368.64 199.88c0-93.234-75.602-168.75-168.75-168.75-93.152 0-168.75 75.516-168.75 168.75s75.598 168.75 168.75 168.75c93.148 0 168.75-75.516 168.75-168.75z"/></clipPath><clipPath id="a"><path d="m111 207h177v89h-177z"/></clipPath><clipPath><path d="m368.64 199.88c0-93.234-75.602-168.75-168.75-168.75-93.152 0-168.75 75.516-168.75 168.75s75.598 168.75 168.75 168.75c93.148 0 168.75-75.516 168.75-168.75z"/></clipPath><clipPath id="d"><rect width="384" height="384"/></clipPath><g clip-path="url(#d)"><g clip-path="url(#c)"></g><g clip-path="url(#b)"></g><g clip-path="url(#a)"></g></g><clipPath><rect width="384" height="384"/></clipPath><clipPath><rect width="384" height="384"/></clipPath><clipPath><rect width="384" height="384"/></clipPath><clipPath><rect width="384" height="384"/></clipPath><clipPath><rect width="384" height="384"/></clipPath><clipPath><rect width="384" height="384"/></clipPath><clipPath><rect width="384" height="384"/></clipPath><clipPath><rect width="384" height="384"/></clipPath><clipPath><rect width="384" height="384"/></clipPath><clipPath><rect width="384" height="384"/></clipPath><clipPath><rect width="384" height="384"/></clipPath></defs><path d="m360 343.2v-302.4c0-9.2773-7.5234-16.801-16.801-16.801h-302.4c-9.2773 0-16.801 7.5234-16.801 16.801v302.4c0 9.2773 7.5234 16.801 16.801 16.801h302.4c9.2773 0 16.801-7.5234 16.801-16.801z" fill="#aa7a50"/><path d="m324 315.5v-231.99c0-8.8398-7.3867-16.004-16.5-16.004h-231c-9.1133 0-16.5 7.1641-16.5 16.004v231.99c0 8.8398 7.3867 16.004 16.5 16.004h231c9.1133 0 16.5-7.1641 16.5-16.004z" opacity=".3"/><path d="m324 308v-231.99c0-8.8398-7.3867-16.004-16.5-16.004h-231c-9.1133 0-16.5 7.1641-16.5 16.004v231.99c0 8.8398 7.3867 16.004 16.5 16.004h231c9.1133 0 16.5-7.1641 16.5-16.004z" fill="#fff"/><g><path d="m144.35 71.992c-12.672 7.7812-45.371 17.746-66.352 23.836l0.65625 1.8516c9.9805-0.99609 24.234-2.4102 34.242-4.1016v14.719h-34.758l0.84375 12.422h29.086c-4.9961 20.543-16.559 29.188-29.719 45.051l1.9922 1.8516c12.34-8.9414 24.711-16.887 32.531-28.664v41.043h3.1875c8.4922 0 16.395-3.2773 16.547-4.2891v-41.816c6.332 5.7031 7.543 12.375 8.7188 19.477 2.1562 1.8125 4.4961 2.6719 6.6562 2.6719 4.4883 0 8.3203-3.25 8.3203-7.7812 0-6.1328-2.2109-11.801-23.695-16.617v-10.926h28.125c4.5039 0 12.668-10.312 13.828-12.141l-30.211-12.586-5.3906 12.281h-6.3516v-18.094c7.5078-1.707 14.512-3.4023 20.18-5.1094 3.2891 0.08203 21.562-1.0781 21.562-1.0781z" fill="#72a2f4"/><path d="m180 84.367v95.633c15.656 0 17.453-5.75 17.676-5.9531v-5.5781h30.254v8.8359c13.188 0 17.836-3.8281 17.836-4.1016v-75.242c3.4961-0.69531 6.1758-1.8203 7.1719-3.1172l-13.266-10.383-13.383 11.531h-27.77zm17.676 24.047h30.254v48.055h-30.254z" fill="#ae7ac4"/><path d="m180 216v90h18v-36h18.914c4.2774 20.949 22.703 35.996 44.086 36 24.852 0 45-20.148 45-45s-20.148-45-45-45c-21.363 0.0234-39.766 15.066-44.039 36h-18.961v-36zm81 18c14.91 0 27 12.09 27 27s-12.09 27-27 27-27-12.09-27-27 12.09-27 27-27z" fill="#5b739d"/><path transform="scale(.75)" d="m32 447.6v10c0 12.37 10.031 22.4 22.4 22.4h403.2c12.37 0 22.4-10.031 22.4-22.4v-10c0 12.37-10.031 22.4-22.4 22.4h-403.2c-12.37 0-22.4-10.031-22.4-22.4z" fill="#070503" opacity=".3" stroke-width="1.3333"/><path transform="scale(.75)" d="m54.4 32c-12.37 0-22.4 10.031-22.4 22.4v10c0-12.37 10.031-22.4 22.4-22.4h403.2c12.37 0 22.4 10.031 22.4 22.4v-10c0-12.37-10.031-22.4-22.4-22.4h-403.2z" fill="#fff" opacity=".3" stroke-width="1.3333"/></g></svg>
